icons/Device/remote-control-line.svg

<svg viewBox="0 0 24 24" xmlns="http://www.w3.org/2000/svg"><path d="M17.0001 12C17.5524 12 18.0001 12.4477 18.0001 13V22H16.0001V14H8.00015V22H6.00015V13C6.00015 12.4477 6.44786 12 7.00015 12H17.0001ZM12.0001 16V18H10.0001V16H12.0001ZM12.0001 6C14.3491 6 16.3827 7.34978 17.3678 9.31602L15.5787 10.2108C14.922 8.89991 13.5662 8 12.0001 8C10.4341 8 9.07833 8.89991 8.42163 10.2108L6.63247 9.31602C7.61755 7.34978 9.65122 6 12.0001 6ZM12.0001 2C15.9153 2 19.3049 4.24991 20.9466 7.5273L19.1576 8.42242C17.8443 5.80019 15.1325 4 12.0001 4C8.86783 4 6.15596 5.80019 4.84271 8.42242L3.05371 7.5273C4.69541 4.24991 8.08503 2 12.0001 2Z"/></svg>

<svg xmlns="http://www.w3.org/2000/svg" viewBox="0 0 24 24">
    <g>
        <path fill="none" d="M0 0h24v24H0z"/>
        <path d="M17 12a1 1 0 0 1 1 1v9h-2v-8H8v8H6v-9a1 1 0 0 1 1-1h10zm-5 4v2h-2v-2h2zm0-10a6 6 0 0 1 5.368 3.316l-1.79.895a4 4 0 0 0-7.157 0l-1.789-.895A6 6 0 0 1 12 6zm0-4a10 10 0 0 1 8.946 5.527l-1.789.895A8 8 0 0 0 12 4a8 8 0 0 0-7.157 4.422l-1.79-.895A10 10 0 0 1 12 2z"/>
    </g>
</svg>
